svg/u21aa.svg

<svg viewBox="0 0 128 128" xmlns="http://www.w3.org/2000/svg">
  <g>
    <path d="M116,4H12c-4.4,0-8,3.6-8,8v104c0,4.4,3.6,8,8,8h104c4.4,0,8-3.6,8-8V12C124,7.6,120.4,4,116,4z" fill="#427687"/>
    <path d="M109.7,4H11.5C7.4,4,4,7.4,4,11.5v97.9c0,4.2,3.4,7.5,7.5,7.5h98.1c4.2,0,7.5-3.4,7.5-7.5V11.5 C117.3,7.4,113.8,4,109.7,4z" fill="#8CAFBF"/>
  </g>
  <path d="M44,22h32c2.2,0,4,1.8,4,4v8c0,2.2-1.8,4-4,4H44c-6.5,0-12,7.3-12,16s5.5,16,12,16h34 c1.1,0,2-0.9,2-2V54c0-3.4,4.1-5.3,6.6-3l24,24c1.8,1.6,1.8,4.4,0,6l-24,24c-2.6,2.3-6.6,0.4-6.6-3V88c0-1.1-0.9-2-2-2H44 c-15.5,0-28-14.3-28-32S28.5,22,44,22z" fill="#FAFAFA"/>
  <path d="M39.7,12.9c0-2.3-1.6-3-10.8-2.7c-7.7,0.3-11.5,1.2-13.8,4 s-2.9,8.5-3,15.3c0,4.8,0,9.3,2.5,9.3c3.4,0,3.4-7.9,6.2-12.3C26.2,17.8,39.7,15.9,39.7,12.9z" opacity="0.5" fill="#B4E1ED" enable-background="new "/>
</svg>

<svg viewBox="0 0 128 128" xmlns="http://www.w3.org/2000/svg">
  <defs/>
  <path d="M116,4 L12,4 C7.6,4 4,7.6 4,12 L4,116 C4,120.4 7.6,124 12,124 L116,124 C120.4,124 124,120.4 124,116 L124,12 C124,7.6 120.4,4 116,4 Z" fill="#427687"/>
  <path d="M109.7,4 L11.5,4 C7.4,4 4,7.4 4,11.5 L4,109.4 C4,113.6 7.4,116.9 11.5,116.9 L109.6,116.9 C113.8,116.9 117.1,113.5 117.1,109.4 L117.1,11.5 C117.3,7.4 113.8,4 109.7,4 Z" fill="#8CAFBF"/>
  <path d="M44,22 L76,22 C78.2,22 80,23.8 80,26 L80,34 C80,36.2 78.2,38 76,38 L44,38 C37.5,38 32,45.3 32,54 C32,62.7 37.5,70 44,70 L78,70 C79.1,70 80,69.1 80,68 L80,54 C80,50.6 84.1,48.7 86.6,51 L110.6,75 C112.4,76.6 112.4,79.4 110.6,81 L86.6,105 C84,107.3 80,105.4 80,102 L80,88 C80,86.9 79.1,86 78,86 L44,86 C28.5,86 16,71.7 16,54 C16,36.3 28.5,22 44,22 Z" fill="#FAFAFA"/>
  <path d="M39.7,12.9 C39.7,10.6 38.1,9.9 28.9,10.2 C21.2,10.5 17.4,11.4 15.1,14.2 C12.8,17 12.2,22.7 12.1,29.5 C12.1,34.3 12.1,38.8 14.6,38.8 C18,38.8 18,30.9 20.8,26.5 C26.2,17.8 39.7,15.9 39.7,12.9 Z" fill="#B4E1ED" opacity="0.5"/>
</svg>
